src/pos-icons/close-circle-multiple-outline.svg

<svg height="24" viewBox="0 0 24 24" width="24" xmlns="http://www.w3.org/2000/svg"><path d="m18.54 9.88-1.42-1.41-2.12 2.12-2.12-2.12-1.41 1.41 2.12 2.12-2.12 2.12 1.41 1.42 2.12-2.13 2.12 2.13 1.42-1.42-2.13-2.12m-14.41 0c0-2.79 1.64-5.2 4-6.32v-2.18c-3.5 1.26-6 4.59-6 8.5s2.5 7.24 6 8.5v-2.18c-2.36-1.12-4-3.53-4-6.32m13-9c-4.96 0-9 4.04-9 9s4.04 9 9 9 9-4.04 9-9-4.04-9-9-9m0 16c-3.86 0-7-3.14-7-7s3.14-7 7-7 7 3.14 7 7-3.14 7-7 7z"/></svg>

<?xml version="1.0" encoding="UTF-8"?><!DOCTYPE svg PUBLIC "-//W3C//DTD SVG 1.1//EN" "http://www.w3.org/Graphics/SVG/1.1/DTD/svg11.dtd"><svg xmlns="http://www.w3.org/2000/svg" xmlns:xlink="http://www.w3.org/1999/xlink" version="1.1" id="mdi-close-circle-multiple-outline" width="24" height="24" viewBox="0 0 24 24"><path d="M18.54 9.88L17.12 8.47L15 10.59L12.88 8.47L11.47 9.88L13.59 12L11.47 14.12L12.88 15.54L15 13.41L17.12 15.54L18.54 14.12L16.41 12M2 12C2 9.21 3.64 6.8 6 5.68V3.5C2.5 4.76 0 8.09 0 12S2.5 19.24 6 20.5V18.32C3.64 17.2 2 14.79 2 12M15 3C10.04 3 6 7.04 6 12S10.04 21 15 21 24 16.96 24 12 19.96 3 15 3M15 19C11.14 19 8 15.86 8 12S11.14 5 15 5 22 8.14 22 12 18.86 19 15 19Z" /></svg>
